X: 152158
T: O'Driscoll's Delight
C: Joe Liddy
S: "The Leitrim Fiddler" (Dublin 1981)
Z: BB
L: 1/8
M: 4/4
R: reel
Q: 1/4 = 170
K: Gdor
gf | d2 cA GD D2 | G2 AF GAcd | f2 af gfga | gdcA FGAc |
d2 cA GD (3DDD | G2 AF GAcd | fgag fdcA | dcAF G2 :|
ef | g2 bg dgbg | Bgaf gfde | f2 af cfaf | fgag fdef | 
g2 bg dgag | bgag fdcd | fgag fdcA | dcAF G2 :|
